outputs/icons/communication/dialpad_sharp.svg

<svg xmlns="http://www.w3.org/2000/svg" width="1200" height="1200" fill="none"><g clip-path="url(#a)"><path fill="#000" d="M600 950c-55 0-100 45-100 100s45 100 100 100 100-45 100-100-45-100-100-100M300 50c-55 0-100 45-100 100s45 100 100 100 100-45 100-100S355 50 300 50m0 300c-55 0-100 45-100 100s45 100 100 100 100-45 100-100-45-100-100-100m0 300c-55 0-100 45-100 100s45 100 100 100 100-45 100-100-45-100-100-100m600-400c55 0 100-45 100-100S955 50 900 50 800 95 800 150s45 100 100 100M600 650c-55 0-100 45-100 100s45 100 100 100 100-45 100-100-45-100-100-100m300 0c-55 0-100 45-100 100s45 100 100 100 100-45 100-100-45-100-100-100m0-300c-55 0-100 45-100 100s45 100 100 100 100-45 100-100-45-100-100-100m-300 0c-55 0-100 45-100 100s45 100 100 100 100-45 100-100-45-100-100-100m0-300c-55 0-100 45-100 100s45 100 100 100 100-45 100-100S655 50 600 50"/></g><defs><clipPath id="a"><path fill="#fff" d="M0 0h1200v1200H0z"/></clipPath></defs></svg>

<svg width="1200" height="1200" viewBox="0 0 1200 1200" fill="none" xmlns="http://www.w3.org/2000/svg"><g clip-path="url(#clip0_858_1980)"><path d="M600 950C545 950 500 995 500 1050C500 1105 545 1150 600 1150C655 1150 700 1105 700 1050C700 995 655 950 600 950ZM300 50C245 50 200 95 200 150C200 205 245 250 300 250C355 250 400 205 400 150C400 95 355 50 300 50ZM300 350C245 350 200 395 200 450C200 505 245 550 300 550C355 550 400 505 400 450C400 395 355 350 300 350ZM300 650C245 650 200 695 200 750C200 805 245 850 300 850C355 850 400 805 400 750C400 695 355 650 300 650ZM900 250C955 250 1000 205 1000 150C1000 95 955 50 900 50C845 50 800 95 800 150C800 205 845 250 900 250ZM600 650C545 650 500 695 500 750C500 805 545 850 600 850C655 850 700 805 700 750C700 695 655 650 600 650ZM900 650C845 650 800 695 800 750C800 805 845 850 900 850C955 850 1000 805 1000 750C1000 695 955 650 900 650ZM900 350C845 350 800 395 800 450C800 505 845 550 900 550C955 550 1000 505 1000 450C1000 395 955 350 900 350ZM600 350C545 350 500 395 500 450C500 505 545 550 600 550C655 550 700 505 700 450C700 395 655 350 600 350ZM600 50C545 50 500 95 500 150C500 205 545 250 600 250C655 250 700 205 700 150C700 95 655 50 600 50Z" fill="black"/></g><defs><clipPath id="clip0_858_1980"><path width="24" fill="white" d="M0 0H1200V1200H0V0z"/></clipPath></defs></svg>
